src/images/svg/tgBig.svg

<svg width="48" height="48" viewBox="0 0 48 48" fill="none" xmlns="http://www.w3.org/2000/svg">
<path d="M24 0C10.752 0 0 10.752 0 24C0 37.248 10.752 48 24 48C37.248 48 48 37.248 48 24C48 10.752 37.248 0 24 0ZM35.136 16.32C34.776 20.112 33.216 29.328 32.424 33.576C32.088 35.376 31.416 35.976 30.792 36.048C29.4 36.168 28.344 35.136 27 34.248C24.888 32.856 23.688 31.992 21.648 30.648C19.272 29.088 20.808 28.224 22.176 26.832C22.536 26.472 28.68 20.88 28.8 20.376C28.8167 20.2997 28.8145 20.2204 28.7935 20.1451C28.7726 20.0698 28.7337 20.0008 28.68 19.944C28.536 19.824 28.344 19.872 28.176 19.896C27.96 19.944 24.6 22.176 18.048 26.592C17.088 27.24 16.224 27.576 15.456 27.552C14.592 27.528 12.96 27.072 11.736 26.664C10.224 26.184 9.048 25.92 9.144 25.08C9.192 24.648 9.792 24.216 10.92 23.76C17.928 20.712 22.584 18.696 24.912 17.736C31.584 14.952 32.952 14.472 33.864 14.472C34.056 14.472 34.512 14.52 34.8 14.76C35.04 14.952 35.112 15.216 35.136 15.408C35.112 15.552 35.16 15.984 35.136 16.32Z" fill="#023047"/>
</svg>

<svg width="48" height="48" fill="none" xmlns="http://www.w3.org/2000/svg"><path d="M24 0a24 24 0 1 0 .02 48.02A24 24 0 0 0 24 0Zm11.14 16.32c-.36 3.8-1.92 13-2.72 17.26-.33 1.8-1 2.4-1.63 2.47-1.39.12-2.45-.91-3.79-1.8-2.11-1.4-3.31-2.26-5.35-3.6-2.38-1.56-.84-2.43.53-3.82.36-.36 6.5-5.95 6.62-6.45a.48.48 0 0 0-.12-.44c-.14-.12-.34-.07-.5-.04-.22.04-3.58 2.28-10.13 6.7-.96.64-1.83.98-2.6.95-.86-.02-2.49-.48-3.71-.89-1.52-.48-2.7-.74-2.6-1.58.05-.43.65-.86 1.78-1.32 7-3.05 11.66-5.06 14-6.02 6.66-2.79 8.03-3.27 8.94-3.27.2 0 .65.05.94.29.24.2.31.46.34.65-.03.14.02.57 0 .91Z" fill="#023047"/></svg>
